nuxtjs.org/static/img/home/discover/dx/zero-config.svg

<svg width="75" height="75" fill="none" xmlns="http://www.w3.org/2000/svg"><mask id="a" maskUnits="userSpaceOnUse" x="0" y="4" width="75" height="69"><path d="M1.91487 45.6651L13.497 65.8046v-.0247c1.2621 2.1807 3.0726 3.9914 5.2508 5.2516 2.1782 1.2601 4.6479 1.9257 7.1627 1.9302h23.179c2.5149-.004 4.9848-.6694 7.1631-1.9296s3.9887-3.0712 5.2505-5.2522l11.582-20.1148C74.3397 43.4796 75 41.0023 75 38.4808c0-2.5215-.6603-4.9988-1.9149-7.1842l-11.582-20.1148c-1.2631-2.18321-3.0758-3.99561-5.2569-5.25595C54.0651 4.6655 51.5922 4.00141 49.0747 4H25.9105c-2.5148.0045-4.9845.67002-7.1627 1.93019-2.1782 1.26016-3.9887 3.07091-5.2508 5.25161L1.91487 31.2966C.660299 33.482 0 35.9593 0 38.4808c0 2.5215.660299 4.9988 1.91487 7.1843z" fill="#00DC82"/></mask><g mask="url(#a)"><path d="M1.91487 45.6651L13.497 65.8046v-.0247c1.2621 2.1807 3.0726 3.9914 5.2508 5.2516 2.1782 1.2601 4.6479 1.9257 7.1627 1.9302h23.179c2.5149-.004 4.9848-.6694 7.1631-1.9296s3.9887-3.0712 5.2505-5.2522l11.582-20.1148C74.3397 43.4796 75 41.0023 75 38.4808c0-2.5215-.6603-4.9988-1.9149-7.1842l-11.582-20.1148c-1.2631-2.18321-3.0758-3.99561-5.2569-5.25595C54.0651 4.6655 51.5922 4.00141 49.0747 4H25.9105c-2.5148.0045-4.9845.67002-7.1627 1.93019-2.1782 1.26016-3.9887 3.07091-5.2508 5.25161L1.91487 31.2966C.660299 33.482 0 35.9593 0 38.4808c0 2.5215.660299 4.9988 1.91487 7.1843z" fill="#00DC82"/><path opacity=".3" d="M-8.08513 45.6668L3.49695 65.8063v-.0247c1.26216 2.1807 3.07265 3.9914 5.25083 5.2516 2.17822 1.2601 4.64792 1.9257 7.16272 1.9302h23.179c2.5149-.004 4.9848-.6694 7.1631-1.9296s3.9887-3.0712 5.2505-5.2522l11.582-20.1148C64.3397 43.4813 65 41.004 65 38.4825c0-2.5215-.6603-4.9988-1.9149-7.1842l-11.582-20.1148c-1.2631-2.1832-3.0758-3.9956-5.2569-5.25594-2.1811-1.26035-4.654-1.92444-7.1715-1.92585H15.9105c-2.5148.00449-4.9845.67002-7.16272 1.93019-2.17818 1.26016-3.98867 3.07091-5.25083 5.2516L-8.08513 31.2983C-9.3397 33.4837-10 35.961-10 38.4825c0 2.5215.6603 4.9988 1.91487 7.1843z" fill="#fff"/></g><path d="M35.25 30.25l.875-1.75 1.75-.875-1.75-.875L35.25 25l-.875 1.75-1.75.875 1.75.875.875 1.75zm-7.875 3.5l1.458-2.9165 2.917-1.4585-2.917-1.4585L27.375 25l-1.458 2.9165L23 29.375l2.917 1.4585 1.458 2.9165zm19.25 7l-1.458 2.9165-2.917 1.4585 2.917 1.4585L46.625 49.5l1.458-2.9165L51 45.125l-2.917-1.4585-1.458-2.9165zm3.862-10.5968l-4.6402-4.6402c-.3413-.3424-.7891-.513-1.237-.513-.4479 0-.8958.1706-1.2376.513L23.513 45.3722c-.6836.6836-.6836 1.7915 0 2.4746l4.6402 4.6402c.3418.3418.7897.5125 1.237.5125.4479 0 .8958-.1707 1.2376-.5125L50.487 32.6273c.6836-.6825.6836-1.791 0-2.4741zm-7.8296 5.9735l-2.7841-2.7841 4.7359-4.736 2.7842 2.7842-4.736 4.7359z" fill="#B9FFE2"/></svg>

<svg width="75" height="75" viewBox="0 0 75 75" fill="none" xmlns="http://www.w3.org/2000/svg">
<mask id="mask0" mask-type="alpha" maskUnits="userSpaceOnUse" x="0" y="4" width="75" height="69">
<path d="M1.91487 45.6651L13.497 65.8046V65.7799C14.7591 67.9606 16.5696 69.7713 18.7478 71.0315C20.926 72.2916 23.3957 72.9572 25.9105 72.9617H49.0895C51.6044 72.9577 54.0743 72.2923 56.2526 71.0321C58.4309 69.7719 60.2413 67.9609 61.5031 65.7799L73.0851 45.6651C74.3397 43.4796 75 41.0023 75 38.4808C75 35.9593 74.3397 33.482 73.0851 31.2966L61.5031 11.1818C60.24 8.99859 58.4273 7.18619 56.2462 5.92585C54.0651 4.6655 51.5922 4.00141 49.0747 4H25.9105C23.3957 4.0045 20.926 4.67002 18.7478 5.93019C16.5696 7.19035 14.7591 9.0011 13.497 11.1818L1.91487 31.2966C0.660299 33.482 0 35.9593 0 38.4808C0 41.0023 0.660299 43.4796 1.91487 45.6651Z" fill="#00DC82"/>
</mask>
<g mask="url(#mask0)">
<path d="M1.91487 45.6651L13.497 65.8046V65.7799C14.7591 67.9606 16.5696 69.7713 18.7478 71.0315C20.926 72.2916 23.3957 72.9572 25.9105 72.9617H49.0895C51.6044 72.9577 54.0743 72.2923 56.2526 71.0321C58.4309 69.7719 60.2413 67.9609 61.5031 65.7799L73.0851 45.6651C74.3397 43.4796 75 41.0023 75 38.4808C75 35.9593 74.3397 33.482 73.0851 31.2966L61.5031 11.1818C60.24 8.99859 58.4273 7.18619 56.2462 5.92585C54.0651 4.6655 51.5922 4.00141 49.0747 4H25.9105C23.3957 4.0045 20.926 4.67002 18.7478 5.93019C16.5696 7.19035 14.7591 9.0011 13.497 11.1818L1.91487 31.2966C0.660299 33.482 0 35.9593 0 38.4808C0 41.0023 0.660299 43.4796 1.91487 45.6651Z" fill="#00DC82"/>
<path opacity="0.3" d="M-8.08513 45.6668L3.49695 65.8063V65.7816C4.75911 67.9623 6.5696 69.773 8.74778 71.0332C10.926 72.2933 13.3957 72.9589 15.9105 72.9634H39.0895C41.6044 72.9594 44.0743 72.294 46.2526 71.0338C48.4309 69.7736 50.2413 67.9626 51.5031 65.7816L63.0851 45.6668C64.3397 43.4813 65 41.004 65 38.4825C65 35.961 64.3397 33.4837 63.0851 31.2983L51.5031 11.1835C50.24 9.0003 48.4273 7.1879 46.2462 5.92756C44.0651 4.66721 41.5922 4.00312 39.0747 4.00171H15.9105C13.3957 4.0062 10.926 4.67173 8.74778 5.9319C6.5696 7.19206 4.75911 9.00281 3.49695 11.1835L-8.08513 31.2983C-9.3397 33.4837 -10 35.961 -10 38.4825C-10 41.004 -9.3397 43.4813 -8.08513 45.6668Z" fill="white"/>
</g>
<path d="M35.25 30.25L36.125 28.5L37.875 27.625L36.125 26.75L35.25 25L34.375 26.75L32.625 27.625L34.375 28.5L35.25 30.25ZM27.375 33.75L28.833 30.8335L31.75 29.375L28.833 27.9165L27.375 25L25.917 27.9165L23 29.375L25.917 30.8335L27.375 33.75ZM46.625 40.75L45.167 43.6665L42.25 45.125L45.167 46.5835L46.625 49.5L48.083 46.5835L51 45.125L48.083 43.6665L46.625 40.75ZM50.487 30.1532L45.8468 25.513C45.5055 25.1706 45.0577 25 44.6098 25C44.1619 25 43.714 25.1706 43.3722 25.513L23.513 45.3722C22.8294 46.0558 22.8294 47.1637 23.513 47.8468L28.1532 52.487C28.495 52.8288 28.9429 52.9995 29.3902 52.9995C29.8381 52.9995 30.286 52.8288 30.6278 52.487L50.487 32.6273C51.1706 31.9448 51.1706 30.8363 50.487 30.1532V30.1532ZM42.6574 36.1267L39.8733 33.3426L44.6092 28.6066L47.3934 31.3908L42.6574 36.1267V36.1267Z" fill="#A8FFE8"/>
</svg>
